X: 1
T: CURT LAWRENCE'S -- HORNPIPE
B: Cole's 1000 Fiddle Tunes
R: hornpipe
M: 2/4
L: 1/16
Z: Contributed 20000423152147 by John Chambers jc:trillian.mit.edu
K: G
uD2 \
| .D2GF GABc | .d2.B2 .B2(ef) | gfed efga | bagf .e2(ga) |
| .b2bg .a2af | gfge d3B | egfa gfef | g2G2G2 :|
|: vga \
| bagf gabg | agfe .d2(ef) | gfed efge | dcBA .B2(fg) |
| ecc"4"e dBBd | cAAc BGGB | gfed efga | b2g2g2 :|
